public/assets/icons/utility/layout.svg

<?xml version="1.0"?><svg xmlns="http://www.w3.org/2000/svg" width="52" height="52" viewBox="0 0 52 52"><path fill="#fff" d="m48 50h-44c-1.1 0-2-0.9-2-2v-44c0-1.1 0.9-2 2-2h44c1.1 0 2 0.9 2 2v44c0 1.1-0.9 2-2 2z m-42-4h40v-40h-40v40z m33-26h-26c-0.6 0-1-0.4-1-1v-6c0-0.6 0.4-1 1-1h26c0.6 0 1 0.4 1 1v6c0 0.6-0.4 1-1 1z m-20 20h-6c-0.6 0-1-0.4-1-1v-12c0-0.6 0.4-1 1-1h6c0.6 0 1 0.4 1 1v12c0 0.6-0.4 1-1 1z m20 0h-12c-0.6 0-1-0.4-1-1v-12c0-0.6 0.4-1 1-1h12c0.6 0 1 0.4 1 1v12c0 0.6-0.4 1-1 1z"></path></svg>

<svg xmlns="http://www.w3.org/2000/svg" height="52" width="52" viewBox="0 0 52 52" fill="#fff"><path d="M48 50H4a2 2 0 0 1-2-2V4c0-1.1.9-2 2-2h44a2 2 0 0 1 2 2v44a2 2 0 0 1-2 2zM6 46h40V6H6z"/><path d="M39 20H13c-.6 0-1-.4-1-1v-6c0-.6.4-1 1-1h26c.6 0 1 .4 1 1v6c0 .6-.4 1-1 1zM19 40h-6c-.6 0-1-.4-1-1V27c0-.6.4-1 1-1h6c.6 0 1 .4 1 1v12c0 .6-.4 1-1 1zm20 0H27c-.6 0-1-.4-1-1V27c0-.6.4-1 1-1h12c.6 0 1 .4 1 1v12c0 .6-.4 1-1 1z"/></svg>
